SVG_Azure_Grouped/Endpoint/Intune Exchange On-Premises Access.svg

<?xml version="1.0" encoding="UTF-8" standalone="no"?>
<!-- Generated by Microsoft Visio, SVG Export Intune Exchange On-Premises Access.svg Page-1 -->

<svg
   xmlns:dc="http://purl.org/dc/elements/1.1/"
   xmlns:cc="http://creativecommons.org/ns#"
   xmlns:rdf="http://www.w3.org/1999/02/22-rdf-syntax-ns#"
   xmlns:svg="http://www.w3.org/2000/svg"
   xmlns="http://www.w3.org/2000/svg"
   xmlns:sodipodi="http://sodipodi.sourceforge.net/DTD/sodipodi-0.dtd"
   xmlns:inkscape="http://www.inkscape.org/namespaces/inkscape"
   width="0.59056425in"
   height="0.78736621in"
   viewBox="0 0 42.520632 56.690508"
   xml:space="preserve"
   class="st3"
   version="1.1"
   id="svg33"
   sodipodi:docname="Intune Exchange On-Premises Access.svg"
   style="font-size:12px;overflow:visible;color-interpolation-filters:sRGB;fill:none;fill-rule:evenodd;stroke-linecap:square;stroke-miterlimit:3"
   inkscape:version="0.92.5 (2060ec1f9f, 2020-04-08)"><metadata
   id="metadata37"><rdf:RDF><cc:Work
       rdf:about=""><dc:format>image/svg+xml</dc:format><dc:type
         rdf:resource="http://purl.org/dc/dcmitype/StillImage" /></cc:Work></rdf:RDF></metadata><sodipodi:namedview
   pagecolor="#ffffff"
   bordercolor="#666666"
   borderopacity="1"
   objecttolerance="10"
   gridtolerance="10"
   guidetolerance="10"
   inkscape:pageopacity="0"
   inkscape:pageshadow="2"
   inkscape:window-width="640"
   inkscape:window-height="480"
   id="namedview35"
   showgrid="false"
   inkscape:zoom="1.8365233"
   inkscape:cx="28.346857"
   inkscape:cy="18.900689"
   inkscape:window-x="0"
   inkscape:window-y="0"
   inkscape:window-maximized="0"
   inkscape:current-layer="svg33" />
	<style
   type="text/css"
   id="style2">
	<![CDATA[
		.st1 {fill:url(#grad0-5);stroke:none;stroke-linecap:butt;stroke-width:0.75}
		.st2 {fill:#f2f2f2;stroke:none;stroke-linecap:butt;stroke-width:0.75}
		.st3 {fill:none;fill-rule:evenodd;font-size:12px;overflow:visible;stroke-linecap:square;stroke-miterlimit:3}
	]]>
	</style>

	<defs
   id="Patterns_And_Gradients">
		<linearGradient
   id="grad0-5"
   x1="-0.00042211605"
   y1="34.37348"
   x2="49.096643"
   y2="34.37348"
   gradientTransform="scale(0.86605443,1.1546618)"
   gradientUnits="userSpaceOnUse">
			<stop
   offset="0"
   stop-color="#5ea0ef"
   stop-opacity="1"
   id="stop4" />
			<stop
   offset="0.18"
   stop-color="#559cec"
   stop-opacity="1"
   id="stop6" />
			<stop
   offset="0.47"
   stop-color="#3c91e5"
   stop-opacity="1"
   id="stop8" />
			<stop
   offset="0.84"
   stop-color="#1380da"
   stop-opacity="1"
   id="stop10" />
			<stop
   offset="1"
   stop-color="#0078d4"
   stop-opacity="1"
   id="stop12" />
		</linearGradient>
	</defs>
	<g
   id="g31"
   transform="translate(-4.2516645,-5.6740461)">
		<title
   id="title16">Page-1</title>
		<g
   id="group19932-1"
   transform="translate(4.25197,-34.0157)">
			<title
   id="title18">Intune Exchange On-Premises Access.19932</title>
			<g
   id="shape19933-2">
				<title
   id="title20">Sheet.19933</title>
				<path
   d="m 42.52,41.59 v 52.89 a 2.3811,1.86753 0 0 1 -2.38,1.9 H 2.42 A 2.3811,1.86753 0 0 1 0,94.48 V 41.59 a 2.3811,1.86753 0 0 1 2.42,-1.9 H 40.1 a 2.3811,1.86753 0 0 1 2.42,1.9 z"
   class="st1"
   id="path22"
   inkscape:connector-curvature="0"
   style="fill:url(#grad0-5);stroke:none;stroke-width:0.75;stroke-linecap:butt" />
			</g>
			<g
   id="shape19934-6"
   transform="translate(5.01732,-1.20056)">
				<title
   id="title25">a1bc77ea-5288-41a0-8f9a-2d282cf</title>
				<path
   d="m 0.64,46.79 h 7.1 a 0.595276,0.466883 0 0 1 0.595276,0.466883 L 8.33,54.26 A 0.595276,0.466883 0 0 1 7.734724,54.726883 L 0.64,54.73 A 0.637795,0.500232 0 0 1 0.002205,54.263117 L 0,47.26 a 0.637795,0.500232 0 0 1 0.637795,-0.466883 z m 12.16,0 h 6.89 a 0.595276,0.466883 0 0 1 0.595276,0.466883 L 20.28,54.26 a 0.595276,0.466883 0 0 1 -0.595276,0.466883 L 12.8,54.73 A 0.595276,0.466883 0 0 1 12.204724,54.263117 L 12.2,47.26 a 0.595276,0.466883 0 0 1 0.595276,-0.466883 z m 12.16,0 h 6.89 a 0.637795,0.500232 0 0 1 0.637795,0.466883 L 32.49,54.26 a 0.637795,0.500232 0 0 1 -0.637795,0.466883 L 24.96,54.73 A 0.595276,0.466883 0 0 1 24.364724,54.263117 L 24.36,47.26 a 0.595276,0.466883 0 0 1 0.595276,-0.466883 z M 0.64,59.49 h 7.1 a 0.595276,0.466883 0 0 1 0.595276,0.466883 L 8.33,66.96 A 0.637795,0.500232 0 0 1 7.734724,67.460232 L 0.64,67.46 A 0.637795,0.500232 0 0 1 0.002205,66.959768 L 0,59.96 a 0.637795,0.500232 0 0 1 0.637795,-0.466883 z m 12.16,0 h 6.89 a 0.595276,0.466883 0 0 1 0.595276,0.466883 L 20.28,66.96 a 0.637795,0.500232 0 0 1 -0.595276,0.500232 L 12.8,67.46 A 0.637795,0.500232 0 0 1 12.204724,66.959768 L 12.2,59.96 a 0.595276,0.466883 0 0 1 0.595276,-0.466883 z m 12.16,0 h 6.89 a 0.637795,0.500232 0 0 1 0.637795,0.466883 L 32.49,66.96 a 0.637795,0.500232 0 0 1 -0.637795,0.500232 L 24.96,67.46 A 0.637795,0.500232 0 0 1 24.364724,66.959768 L 24.36,59.96 a 0.595276,0.466883 0 0 1 0.595276,-0.466883 z M 0.64,72.23 h 7.1 a 0.595276,0.466883 0 0 1 0.595276,0.466883 L 8.33,79.7 A 0.595276,0.466883 0 0 1 7.734724,80.166883 L 0.64,80.17 A 0.637795,0.500232 0 0 1 0.002205,79.703117 L 0,72.57 a 0.637795,0.500232 0 0 1 0.637795,-0.333488 z m 12.16,0 h 6.89 a 0.595276,0.466883 0 0 1 0.807874,0.333488 L 20.49,79.57 a 0.595276,0.466883 0 0 1 -0.595276,0.466883 L 12.8,80.04 A 0.595276,0.466883 0 0 1 12.204724,79.573117 L 12.2,72.57 a 0.595276,0.466883 0 0 1 0.595276,-0.333488 z m 0,12.71 h 6.89 a 0.595276,0.466883 0 0 1 0.595276,0.466883 L 20.28,95.91 a 0.595276,0.466883 0 0 1 -0.595276,0.466883 L 12.8,96.38 A 0.595276,0.466883 0 0 1 12.204724,95.913117 L 12.2,85.41 a 0.595276,0.466883 0 0 1 0.595276,-0.466883 z M 24.96,72.23 h 6.89 a 0.637795,0.500232 0 0 1 0.637795,0.466883 L 32.49,79.7 a 0.637795,0.500232 0 0 1 -0.637795,0.466883 L 24.96,80.17 A 0.595276,0.466883 0 0 1 24.364724,79.703117 L 24.36,72.57 a 0.595276,0.466883 0 0 1 0.595276,-0.333488 z"
   class="st2"
   id="path27"
   inkscape:connector-curvature="0"
   style="fill:#f2f2f2;stroke:none;stroke-width:0.75;stroke-linecap:butt" />
			</g>
		</g>
	</g>
</svg>

<?xml version="1.0" encoding="UTF-8" standalone="no"?>
<!DOCTYPE svg PUBLIC "-//W3C//DTD SVG 1.1//EN" "http://www.w3.org/Graphics/SVG/1.1/DTD/svg11.dtd">
<!-- Generated by Microsoft Visio, SVG Export Intune Exchange On-Premises Access.svg Page-1 -->
<svg xmlns="http://www.w3.org/2000/svg" xmlns:xlink="http://www.w3.org/1999/xlink" xmlns:ev="http://www.w3.org/2001/xml-events"
		width="0.708661in" height="1.33858in" viewBox="0 0 51.0236 96.378" xml:space="preserve" color-interpolation-filters="sRGB"
		class="st3">
	<style type="text/css">
	<![CDATA[
		.st1 {fill:url(#grad0-5);stroke:none;stroke-linecap:butt;stroke-width:0.75}
		.st2 {fill:#f2f2f2;stroke:none;stroke-linecap:butt;stroke-width:0.75}
		.st3 {fill:none;fill-rule:evenodd;font-size:12px;overflow:visible;stroke-linecap:square;stroke-miterlimit:3}
	]]>
	</style>

	<defs id="Patterns_And_Gradients">
		<linearGradient id="grad0-5" x1="0" y1="0" x2="1" y2="0" gradientTransform="rotate(90 0.5 0.5)">
			<stop offset="0" stop-color="#5ea0ef" stop-opacity="1"/>
			<stop offset="0.18" stop-color="#559cec" stop-opacity="1"/>
			<stop offset="0.47" stop-color="#3c91e5" stop-opacity="1"/>
			<stop offset="0.84" stop-color="#1380da" stop-opacity="1"/>
			<stop offset="1" stop-color="#0078d4" stop-opacity="1"/>
		</linearGradient>
	</defs>
	<g>
		<title>Page-1</title>
		<g id="group19477-1" transform="translate(4.25197,-34.0157)">
			<title>Intune Exchange On-Premises Access.19477</title>
			<g id="shape19478-2">
				<title>Sheet.19478</title>
				<path d="M42.52 41.59 L42.52 94.48 A2.3811 1.86753 0 0 1 40.14 96.38 L2.42 96.38 A2.3811 1.86753 0 0 1 0 94.48 L0
							 41.59 A2.3811 1.86753 0 0 1 2.42 39.69 L40.1 39.69 A2.3811 1.86753 0 0 1 42.52 41.59 Z" class="st1"/>
			</g>
			<g id="shape19479-6" transform="translate(5.01732,-1.20056)">
				<title>a1bc77ea-5288-41a0-8f9a-2d282cf</title>
				<path d="M0.64 46.79 L7.74 46.79 a0.595276 0.466883 0 0 1 0.595276 0.466883 L8.33 54.26 a0.595276 0.466883 0 0 1
							 -0.595276 0.466883 L0.64 54.73 a0.637795 0.500232 0 0 1 -0.637795 -0.466883 L0 47.26 a0.637795 0.500232
							 0 0 1 0.637795 -0.466883 ZM12.8 46.79 L19.69 46.79 a0.595276 0.466883 0 0 1 0.595276 0.466883 L20.28
							 54.26 a0.595276 0.466883 0 0 1 -0.595276 0.466883 L12.8 54.73 a0.595276 0.466883 0 0 1 -0.595276 -0.466883
							 L12.2 47.26 a0.595276 0.466883 0 0 1 0.595276 -0.466883 ZM24.96 46.79 L31.85 46.79 a0.637795 0.500232
							 0 0 1 0.637795 0.466883 L32.49 54.26 a0.637795 0.500232 0 0 1 -0.637795 0.466883 L24.96 54.73 a0.595276
							 0.466883 0 0 1 -0.595276 -0.466883 L24.36 47.26 a0.595276 0.466883 0 0 1 0.595276 -0.466883 ZM0.64 59.49
							 L7.74 59.49 a0.595276 0.466883 0 0 1 0.595276 0.466883 L8.33 66.96 a0.637795 0.500232 0 0 1 -0.595276
							 0.500232 L0.64 67.46 a0.637795 0.500232 0 0 1 -0.637795 -0.500232 L0 59.96 a0.637795 0.500232 0 0 1
							 0.637795 -0.466883 ZM12.8 59.49 L19.69 59.49 a0.595276 0.466883 0 0 1 0.595276 0.466883 L20.28 66.96
							 a0.637795 0.500232 0 0 1 -0.595276 0.500232 L12.8 67.46 a0.637795 0.500232 0 0 1 -0.595276 -0.500232
							 L12.2 59.96 a0.595276 0.466883 0 0 1 0.595276 -0.466883 ZM24.96 59.49 L31.85 59.49 a0.637795 0.500232
							 0 0 1 0.637795 0.466883 L32.49 66.96 a0.637795 0.500232 0 0 1 -0.637795 0.500232 L24.96 67.46 a0.637795
							 0.500232 0 0 1 -0.595276 -0.500232 L24.36 59.96 a0.595276 0.466883 0 0 1 0.595276 -0.466883 ZM0.64 72.23
							 L7.74 72.23 a0.595276 0.466883 0 0 1 0.595276 0.466883 L8.33 79.7 a0.595276 0.466883 0 0 1 -0.595276
							 0.466883 L0.64 80.17 a0.637795 0.500232 0 0 1 -0.637795 -0.466883 L0 72.57 a0.637795 0.500232 0 0 1
							 0.637795 -0.333488 ZM12.8 72.23 L19.69 72.23 a0.595276 0.466883 0 0 1 0.807874 0.333488 L20.49 79.57
							 a0.595276 0.466883 0 0 1 -0.595276 0.466883 L12.8 80.04 a0.595276 0.466883 0 0 1 -0.595276 -0.466883
							 L12.2 72.57 a0.595276 0.466883 0 0 1 0.595276 -0.333488 ZM12.8 84.94 L19.69 84.94 a0.595276 0.466883
							 0 0 1 0.595276 0.466883 L20.28 95.91 a0.595276 0.466883 0 0 1 -0.595276 0.466883 L12.8 96.38 a0.595276
							 0.466883 0 0 1 -0.595276 -0.466883 L12.2 85.41 a0.595276 0.466883 0 0 1 0.595276 -0.466883 ZM24.96 72.23
							 L31.85 72.23 a0.637795 0.500232 0 0 1 0.637795 0.466883 L32.49 79.7 a0.637795 0.500232 0 0 1 -0.637795
							 0.466883 L24.96 80.17 a0.595276 0.466883 0 0 1 -0.595276 -0.466883 L24.36 72.57 a0.595276 0.466883 0
							 0 1 0.595276 -0.333488 Z" class="st2"/>
			</g>
		</g>
	</g>
</svg>
